X: 106
T: The Frost Is All Over
R: jig
M: 6/8
L: 1/8
K: Dmaj
|: A |def edB | AFD E2 D | DFA AFA | Bee edc |
dd/e/f edB | AFD E2 F | D2 A AFA | Bdc d2 :|
|: e |fef afd | gfg bag | f2 f agf | g2 g e2 g |
f3 afd | g3 bag | ff/g/a efg | fdc d2 :|
